icons/desktop/40/book-40.svg

<svg width="40" height="40" viewBox="0 0 40 40" fill="none" xmlns="http://www.w3.org/2000/svg">
<path d="M25.5 18.9996C26.3283 18.9996 26.9999 19.6713 27 20.4996C27 21.3281 26.3284 21.9996 25.5 21.9996H12.5C11.6716 21.9996 11 21.3281 11 20.4996C11.0001 19.6713 11.6717 18.9996 12.5 18.9996H25.5Z" fill="black"/>
<path d="M25.5 10.9996C26.3283 10.9996 26.9999 11.6713 27 12.4996C27 13.3281 26.3284 13.9996 25.5 13.9996H12.5C11.6716 13.9996 11 13.3281 11 12.4996C11.0001 11.6713 11.6717 10.9996 12.5 10.9996H25.5Z" fill="black"/>
<path fill-rule="evenodd" clip-rule="evenodd" d="M19.1279 1.99964C22.9985 2.00771 26.483 2.37556 29.4893 2.88734L30.748 3.11488L30.9785 3.1637C33.337 3.72504 35 5.84012 35 8.27308V25.9996C35 27.6714 34.2175 29.1593 33 30.1207V34.442C33.2206 34.3917 33.4375 34.3417 33.6504 34.2907C34.456 34.0976 35.2659 34.5945 35.459 35.4C35.652 36.2056 35.1552 37.0156 34.3496 37.2086C30.4497 38.1432 25.3084 38.9935 19.252 38.9996C14.5478 39.0037 10.3912 38.4979 6.9375 37.8356C4.65891 37.3992 3 35.4162 3 33.0836C3 33.0765 3.00095 33.0693 3.00098 33.0621C3.00096 33.0594 3 33.0561 3 33.0534V8.27308C3 5.7609 4.77381 3.58945 7.25391 3.11488L8.53613 2.88245C11.6006 2.36148 15.1635 1.99158 19.1279 1.99964ZM29.75 31.2496H7.83398C6.82147 31.2496 6.00008 32.0711 6 33.0836C6 33.9648 6.62488 34.7214 7.50195 34.8893C10.7959 35.5209 14.7608 36.0025 19.248 35.9987C23.2963 35.9946 26.916 35.5938 30 35.0485V31.2428C29.9171 31.2467 29.8338 31.2496 29.75 31.2496ZM19.1221 4.99964C14.8089 4.99086 10.9951 5.45254 7.81836 6.06116C6.76486 6.2629 6 7.18752 6 8.27308V28.61C6.56557 28.3778 7.18483 28.2496 7.83398 28.2496H29.75C30.9926 28.2496 32 27.2422 32 25.9996V8.27308C32 7.18655 31.2357 6.26252 30.1836 6.06116C27.0631 5.46421 23.3324 5.00843 19.1221 4.99964Z" fill="black"/>
</svg>

<!-- This Source Code Form is subject to the terms of the Mozilla Public
   - License, v. 2.0. If a copy of the MPL was not distributed with this
   - file, You can obtain one at http://mozilla.org/MPL/2.0/. -->
<svg xmlns="http://www.w3.org/2000/svg" width="40" height="40" fill="context-fill" fill-opacity="context-fill-opacity" viewBox="0 0 40 40">
    <path d="M25.5 19a1.5 1.5 0 0 1 0 3h-13a1.5 1.5 0 1 1 0-3zM25.5 11a1.5 1.5 0 0 1 0 3h-13a1.5 1.5 0 1 1 0-3z" />
    <path fill-rule="evenodd" d="M19.128 2c3.87.008 7.355.376 10.361.887l1.259.228.23.049A5.245 5.245 0 0 1 35 8.274V26c0 1.671-.782 3.16-2 4.12v4.322q.331-.075.65-.151a1.5 1.5 0 0 1 .7 2.918 65.1 65.1 0 0 1-27.412.627A4.84 4.84 0 0 1 3 33.084l.001-.022L3 33.053V8.273a5.244 5.244 0 0 1 4.254-5.158l1.282-.233A62.4 62.4 0 0 1 19.128 2M29.75 31.25H7.834a1.835 1.835 0 0 0-.332 3.64A62.1 62.1 0 0 0 30 35.047v-3.805a5 5 0 0 1-.25.007M19.122 5A59.4 59.4 0 0 0 7.818 6.06 2.245 2.245 0 0 0 6 8.273V28.61a4.8 4.8 0 0 1 1.834-.36H29.75A2.25 2.25 0 0 0 32 26V8.273c0-1.086-.764-2.01-1.816-2.212A59.5 59.5 0 0 0 19.122 5" clip-rule="evenodd" />
</svg>
